assets/icons/24px/stroke/airplay-24px.svg

<svg width="24" height="24" viewBox="0 0 24 24" fill="none" xmlns="http://www.w3.org/2000/svg">
<path fill-rule="evenodd" clip-rule="evenodd" d="M19.0613 4.06431C18.5988 4.00213 17.9711 4 17 4.00001L7.00001 4.00001C6.02893 4.00001 5.40122 4.00214 4.93871 4.06432C4.50498 4.12264 4.36903 4.21678 4.2929 4.29291C4.21678 4.36903 4.12263 4.50498 4.06432 4.93872C4.00213 5.40123 4.00001 6.02894 4.00001 7.00002L4.00001 13C4 13.9711 4.00213 14.5988 4.06431 15.0613C4.12262 15.495 4.21677 15.631 4.2929 15.7071C4.36902 15.7832 4.50497 15.8774 4.93871 15.9357C5.40121 15.9979 6.02893 16 7.00001 16H7.5C8.05229 16 8.5 16.4477 8.5 17C8.5 17.5523 8.05229 18 7.5 18L6.93417 18C6.04769 18.0001 5.28387 18.0001 4.67221 17.9179C4.0167 17.8297 3.38834 17.631 2.87868 17.1213C2.36902 16.6117 2.17028 15.9833 2.08214 15.3278C1.99991 14.7161 1.99995 13.9523 2 13.0658L2.00001 7.00001C2.00001 6.978 2.00001 6.95605 2.00001 6.93418C1.99996 6.0477 1.99992 5.28388 2.08215 4.67222C2.17028 4.01671 2.36903 3.38836 2.87869 2.8787C3.38835 2.36903 4.0167 2.17029 4.67222 2.08216C5.28388 1.99992 6.04769 1.99996 6.93418 2.00001C6.95605 2.00001 6.97799 2.00001 7.00001 2.00001L17.0658 2C17.9523 1.99995 18.7161 1.99991 19.3278 2.08214C19.9833 2.17027 20.6117 2.36902 21.1213 2.87868C21.631 3.38834 21.8297 4.0167 21.9179 4.67221C22.0001 5.28388 22.0001 6.0477 22 6.9342V13.0658C22.0001 13.9523 22.0001 14.7161 21.9179 15.3278C21.8297 15.9833 21.631 16.6116 21.1213 17.1213C20.6117 17.631 19.9833 17.8297 19.3278 17.9178C18.7161 18.0001 17.9523 18 17.0658 18L16.5 18C15.9477 18 15.5 17.5523 15.5 17C15.5 16.4477 15.9477 16 16.5 16H17C17.9711 16 18.5988 15.9979 19.0613 15.9357C19.495 15.8774 19.631 15.7832 19.7071 15.7071C19.7832 15.631 19.8774 15.495 19.9357 15.0613C19.9979 14.5988 20 13.9711 20 13V7C20 6.02893 19.9979 5.40121 19.9357 4.93871C19.8774 4.50497 19.7832 4.36902 19.7071 4.2929C19.631 4.21677 19.495 4.12262 19.0613 4.06431Z" fill="white"/>
<path fill-rule="evenodd" clip-rule="evenodd" d="M11.6604 15.7728C11.8852 15.7341 12.1149 15.7341 12.3396 15.7728C12.8716 15.8645 13.2389 16.1864 13.5006 16.4773C13.7455 16.7495 14.0038 17.1186 14.281 17.5148C14.2914 17.5295 14.3017 17.5444 14.3121 17.5592C14.3237 17.5758 14.3353 17.5924 14.3469 17.6089C14.7109 18.1288 15.0362 18.5935 15.2454 18.9876C15.4566 19.3855 15.6807 19.9437 15.498 20.5646C15.4248 20.8133 15.304 21.0454 15.1422 21.248C14.7383 21.7537 14.1525 21.8903 13.7054 21.9455C13.2626 22.0001 12.6953 22 12.0606 22C12.0405 22 12.0203 22 12 22C11.9798 22 11.9596 22 11.9394 22C11.3047 22 10.7375 22.0001 10.2947 21.9455C9.84756 21.8903 9.2617 21.7537 8.85784 21.248C8.69606 21.0454 8.57521 20.8133 8.50202 20.5646C8.31931 19.9437 8.5434 19.3855 8.75461 18.9876C8.96379 18.5935 9.28912 18.1288 9.65315 17.6088C9.6647 17.5924 9.67628 17.5758 9.6879 17.5592C9.6983 17.5444 9.70867 17.5295 9.71901 17.5148C9.99623 17.1186 10.2545 16.7495 10.4994 16.4773C10.7611 16.1864 11.1285 15.8645 11.6604 15.7728ZM11.9863 17.8149C11.8335 17.9847 11.6457 18.2499 11.3264 18.7061C10.9166 19.2914 10.6653 19.6537 10.5212 19.9252C10.5155 19.936 10.5101 19.9462 10.5051 19.956C10.516 19.9575 10.5275 19.959 10.5395 19.9605C10.8446 19.9981 11.2855 20 12 20C12.7145 20 13.1554 19.9981 13.4605 19.9605C13.4725 19.959 13.484 19.9575 13.4949 19.956C13.4899 19.9462 13.4845 19.936 13.4788 19.9252C13.3347 19.6537 13.0834 19.2914 12.6737 18.7061C12.3543 18.2499 12.1665 17.9847 12.0137 17.8149C12.009 17.8096 12.0044 17.8046 12 17.7998C11.9956 17.8046 11.991 17.8096 11.9863 17.8149ZM13.5673 20.1276C13.5673 20.1276 13.5672 20.1272 13.5671 20.1264ZM10.4327 20.1276C10.4327 20.1276 10.4328 20.1272 10.4329 20.1264Z" fill="white"/>
</svg>

<svg width="24" height="24" fill="none" xmlns="http://www.w3.org/2000/svg"><path fill-rule="evenodd" clip-rule="evenodd" d="M19.061 4.064C18.6 4.002 17.971 4 17 4H7c-.971 0-1.599.002-2.061.064-.434.059-.57.153-.646.229-.076.076-.17.212-.229.646C4.002 5.4 4 6.029 4 7v6c0 .971.002 1.599.064 2.061.059.434.153.57.229.646.076.076.212.17.646.229C5.4 15.998 6.029 16 7 16h.5a1 1 0 1 1 0 2h-.566c-.886 0-1.65 0-2.262-.082-.655-.088-1.284-.287-1.793-.797-.51-.51-.709-1.138-.797-1.793C2 14.716 2 13.952 2 13.066V7v-.066c0-.886 0-1.65.082-2.262.088-.655.287-1.284.797-1.793.51-.51 1.138-.709 1.793-.797C5.284 2 6.048 2 6.934 2H17.066c.886 0 1.65 0 2.262.082.655.088 1.284.287 1.793.797.51.51.709 1.138.797 1.793C22 5.284 22 6.048 22 6.934v6.132c0 .886 0 1.65-.082 2.262-.088.655-.287 1.284-.797 1.793-.51.51-1.138.709-1.793.797-.612.082-1.376.082-2.262.082H16.5a1 1 0 1 1 0-2h.5c.971 0 1.599-.002 2.061-.064.434-.059.57-.153.646-.229.076-.076.17-.212.229-.646.062-.462.064-1.09.064-2.061V7c0-.971-.002-1.599-.064-2.061-.059-.434-.153-.57-.229-.646-.076-.076-.212-.17-.646-.229z" fill="#fff"/><path fill-rule="evenodd" clip-rule="evenodd" d="M11.66 15.773c.225-.039.455-.039.68 0 .532.091.899.413 1.16.704.245.273.504.642.781 1.038l.031.044.035.05c.364.52.69.984.898 1.379.212.398.436.956.253 1.577a2 2 0 0 1-.356.683c-.404.506-.99.642-1.437.697-.442.055-1.01.055-1.644.055h-.121c-.635 0-1.202 0-1.645-.055-.447-.055-1.033-.191-1.437-.697a2 2 0 0 1-.356-.683c-.183-.621.041-1.18.253-1.577.209-.395.534-.86.898-1.38l.035-.049.031-.044c.277-.396.536-.765.78-1.038.262-.29.63-.613 1.161-.704zm.326 2.042c-.152.17-.34.435-.66.891-.41.585-.66.948-.805 1.22l-.016.03.034.005c.306.037.747.039 1.461.039.714 0 1.155-.002 1.46-.04a2.81 2.81 0 0 0 .035-.004l-.016-.03c-.144-.272-.396-.635-.805-1.22-.32-.456-.508-.721-.66-.891L12 17.8l-.014.015zm1.581 2.313v-.002zm-3.134 0v-.002z" fill="#fff"/></svg>
